X:1
T:Title
%%score { ( 1 3 ) | ( 2 4 ) }
L:1/8
Q:1/4=100
M:4/4
K:Bb
V:1 treble nm="Grand Piano"
V:3 treble 
V:2 bass 
V:4 bass 
V:1
 [DB]2 [DB]>[DB] [DB]2 D>E | F2 G>F D2 B,2 | [Fd]2 [Fd]>[Fd] [Fd]2 [DB]>[Fd] | z4 c4[K:bass] | %4
w: R.~C.~Ward * * * * *||||
 [DB]2 [DB]>[DB] [DB]2 D>E | F2 G>F D2 B,2 | [Fd]2 [_Af]>[Af] [Ge]2 G>c | B2 [CA]>[CA] [DB]4 | %8
w: ||||
 c2 c>d cA F2 | d2 d>e dc B2 | c2 c>d cBAB | .c2 z2 F4 | [DB]2 [DB]>[DB] [DB]2 D>E | %13
w: |||||
 F2 G>F D2 B,2 | [Fd]2 [_Af]>[Af] [Ge]2 G>c | B2 [CA]>[CA] [DB]4 |] %16
w: |||
V:2
 [B,,F,]2 [B,,F,]>[B,,F,] [B,,F,]2 D,>E, | F,2 G,>F, D,2 B,,2 | %2
 [B,,B,]2 [B,,B,]>[B,,B,] [B,,B,]2 [B,,F,]>[B,,B,] | z4 [F,F]4 | %4
 [B,,F,]2 [B,,F,]>[B,,F,] [B,,F,]2 D,>E, | F,2 G,>F, D,2 B,,2 | %6
 [B,,B,]2 [D,B,]>[D,B,] [E,B,]2 [E,B,E]>[E,G,E] | [F,D]2 [F,,F,]>[F,,F,] [B,,F,]4 | %8
 [F,A,F]2 [F,A,F]>[F,B,F] [F,F]-[F,CF] [F,A,]2 | [B,F]2 [B,F]>[B,G] FE[K:bass] [B,D]2 | %10
 [F,A,F]2 [F,A,F]>[F,B,F] [F,A,F][F,DF][F,CF][F,B,D] | .G,2 z2 F,4 | %12
 [B,,F,]2 [B,,F,]>[B,,F,] [B,,F,]2 D,>E, | F,2 G,>F, D,2 B,,2 | %14
 [B,,B,]2 [D,B,]>[D,B,] [E,B,]2 [E,B,E]>[E,G,E] | [F,D]2 [F,,F,]>[F,,F,] [B,,F,]4 |] %16
V:3
 x8 | x8 | x8 | [Fc]2 [=Ec]>[Ec] z[K:bass] E,D,C, | x8 | x8 | x8 | x8 | x8 | x8 | x8 | %11
 =E-[EB][CEA][B,EG] .A,2 z2 | x8 | x8 | x8 | x8 |] %16
V:4
 x8 | x8 | x8 | [C,A,]2 [C,G,]>[C,B,] .A,2 z2 | x8 | x8 | x8 | x8 | z4 .A,2 z2 | %9
 z4 B,2[K:bass] z2 | x8 | C,-[C,C]C,C, z E,D,C, | x8 | x8 | x8 | x8 |] %16

